static/img/svg/expand.svg

<svg xmlns="http://www.w3.org/2000/svg" width="24" height="24" viewBox="0 0 24 24"><path d="M15.707 9.707l3.172-3.172L21 8.656V3h-5.656l2.121 2.121-3.172 3.172zM17.465 18.879L15.344 21H21v-5.656l-2.121 2.121-3.172-3.172-1.414 1.414zM8.293 14.293l-3.172 3.172L3 15.344V21h5.656l-2.121-2.121 3.172-3.172zM6.535 5.121L8.656 3H3v5.656l2.121-2.121 3.172 3.172 1.414-1.414z"/></svg>

<svg xmlns="http://www.w3.org/2000/svg" width="24" height="24" viewBox="0 0 24 24"><path d="M15.707 9.707L18.879 6.535 21 8.656 21 3 15.344 3 17.465 5.121 14.293 8.293zM17.465 18.879L15.344 21 21 21 21 15.344 18.879 17.465 15.707 14.293 14.293 15.707zM8.293 14.293L5.121 17.465 3 15.344 3 21 8.656 21 6.535 18.879 9.707 15.707zM6.535 5.121L8.656 3 3 3 3 8.656 5.121 6.535 8.293 9.707 9.707 8.293z"/></svg>
